X:1
T:Andy Renwick's Ferret
M:4/4
L:1/8
R:reel
K:Ador
cA (3AAA ABcd|eaag agef|gd (3ddd egde|degd egdB|
cA (3AAA ABcd|eaag agef|gd (3ddd efgd|1 edgB A2 AB:|2 edgB A2 Bd|]
eaag ageg|a2 ag agef|gd (3ddd egde|degd egdg|
eaag ageg|a2 ag agef|gd (3ddd efgd|edgB A2 Bd|
eaag ageg|a2 ag agef|gd (3ddd egde|degd egdB|
cA (3AAA ABcd|eaag agef|gd (3ddd efgd|edgB A2 AB|]
</abc>
<abc>
